X:405
T: Saint Ruth's Bush
S: "Sully's Irish Music Book"
Z: B.Black
L: 1/8
M: 4/4
R: reel
K: Ador
Bd|eAAB c2 BA|GEED EDB,G,|AGAB cBcd|eaag (3efg dg|
eAAB c2 BA|GEED EDB,G,|A2 AB cdeg|dBGB A2 :|
Bd|eaag abag|eaag bgag|eggf g2 fg|eg g2 edBd|
eaag abag|eaag bgag|edef gage|dBGB A2 :|
